Point/img/garant3.svg

<svg width="120" height="129" viewBox="0 0 120 129" fill="none" xmlns="http://www.w3.org/2000/svg">
<path fill-rule="evenodd" clip-rule="evenodd" d="M70.838 2.45555C56.3698 1.01031 29.2743 -3.27122 17.2203 4.65562C5.05884 12.6531 2.78466 28.0242 0.439934 42.1333C-1.66564 54.8033 4.29472 66.6164 7.57549 79.0472C11.1396 92.5515 3.74394 109.959 14.0893 119.596C24.8846 129.652 51.4374 129.055 66.2198 126.963C80.1663 124.99 84.661 115.012 96.2221 107.162C108.115 99.0869 111.859 109.349 116.162 95.8643C120.469 82.3694 122.03 57.6053 116.162 44.681C111.038 33.3946 108.638 20.5876 98.863 12.7359C88.7574 4.61845 83.8682 3.75717 70.838 2.45555Z" fill="#FFEEF2"/>
<path d="M71.8982 69.5017H72.7418C74.4939 69.5022 76.1856 70.1425 77.4989 71.3022C78.8122 72.462 79.6569 74.0614 79.8741 75.8L80.8112 83.287C80.8955 83.9615 80.8353 84.6462 80.6348 85.2956C80.4342 85.9451 80.0978 86.5444 79.6479 87.054C79.198 87.5635 78.6449 87.9715 78.0253 88.2509C77.4056 88.5303 76.7336 88.6747 76.0539 88.6746H43.7764C43.0967 88.6747 42.4247 88.5303 41.8051 88.2509C41.1855 87.9715 40.6323 87.5635 40.1824 87.054C39.7325 86.5444 39.3961 85.9451 39.1956 85.2956C38.995 84.6462 38.9349 83.9615 39.0192 83.287L39.9538 75.8C40.1712 74.0606 41.0165 72.4605 42.3309 71.3006C43.6452 70.1408 45.338 69.501 47.0909 69.5017H47.9321" stroke="#00325A" stroke-width="4.79321" stroke-linecap="round" stroke-linejoin="round"/>
<path d="M52.7253 43.9897C54.5228 41.0239 56.3203 39.5439 59.9152 39.5439C64.3944 39.5439 67.105 42.5067 67.105 45.4696C67.105 48.4324 65.3075 49.9123 59.9152 52.8781V57.5185M59.9152 68.0036V69.5015" stroke="#00325A" stroke-width="4.79321" stroke-linecap="round"/>
</svg>

<svg width="120" height="129" fill="none" xmlns="http://www.w3.org/2000/svg"><path fill-rule="evenodd" clip-rule="evenodd" d="M70.838 2.456C56.37 1.01 29.274-3.271 17.22 4.656 5.06 12.653 2.785 28.024.44 42.133c-2.106 12.67 3.855 24.483 7.135 36.914 3.565 13.505-3.831 30.912 6.514 40.549 10.796 10.056 37.348 9.459 52.13 7.367 13.947-1.973 18.442-11.951 30.003-19.801 11.893-8.075 15.637 2.187 19.94-11.298 4.307-13.495 5.868-38.259 0-51.183-5.124-11.286-7.524-24.093-17.299-31.945-10.106-8.118-14.995-8.979-28.025-10.28z" fill="#FFEEF2"/><path d="M71.898 69.502h.844a7.19 7.19 0 017.132 6.298l.937 7.487a4.794 4.794 0 01-4.757 5.388H43.776a4.794 4.794 0 01-4.757-5.388l.935-7.487a7.19 7.19 0 017.137-6.298h.841" stroke="#00325A" stroke-width="4.793" stroke-linecap="round" stroke-linejoin="round"/><path d="M52.725 43.99c1.798-2.966 3.595-4.446 7.19-4.446 4.48 0 7.19 2.963 7.19 5.926 0 2.962-1.797 4.442-7.19 7.408v4.64m0 10.486V69.5" stroke="#00325A" stroke-width="4.793" stroke-linecap="round"/></svg>
